baragozik/img/plus.svg

<svg width="29" height="29" viewBox="0 0 29 29" fill="none" xmlns="http://www.w3.org/2000/svg">
<path d="M14.5 27.1875C11.1351 27.1875 7.90795 25.8508 5.52858 23.4714C3.14921 21.092 1.8125 17.8649 1.8125 14.5C1.8125 11.1351 3.14921 7.90795 5.52858 5.52858C7.90795 3.14921 11.1351 1.8125 14.5 1.8125C17.8649 1.8125 21.092 3.14921 23.4714 5.52858C25.8508 7.90795 27.1875 11.1351 27.1875 14.5C27.1875 17.8649 25.8508 21.092 23.4714 23.4714C21.092 25.8508 17.8649 27.1875 14.5 27.1875ZM14.5 29C18.3456 29 22.0338 27.4723 24.753 24.753C27.4723 22.0338 29 18.3456 29 14.5C29 10.6544 27.4723 6.96623 24.753 4.24695C22.0338 1.52767 18.3456 0 14.5 0C10.6544 0 6.96623 1.52767 4.24695 4.24695C1.52767 6.96623 0 10.6544 0 14.5C0 18.3456 1.52767 22.0338 4.24695 24.753C6.96623 27.4723 10.6544 29 14.5 29Z" fill="#828282"/>
<path d="M7.76706 17.3402C7.97521 17.22 8.22257 17.1875 8.45473 17.2497C8.68688 17.3119 8.88482 17.4637 9.005 17.6719C9.56164 18.6367 10.3627 19.4379 11.3274 19.9947C12.2922 20.5516 13.3866 20.8444 14.5005 20.8437C15.6144 20.8444 16.7088 20.5516 17.6736 19.9947C18.6383 19.4379 19.4394 18.6367 19.996 17.6719C20.0551 17.568 20.1341 17.4768 20.2286 17.4036C20.323 17.3303 20.431 17.2765 20.5464 17.2452C20.6617 17.2139 20.7821 17.2057 20.9006 17.2211C21.0192 17.2365 21.1335 17.2752 21.237 17.335C21.3405 17.3947 21.4311 17.4744 21.5037 17.5693C21.5763 17.6642 21.6294 17.7726 21.66 17.8882C21.6905 18.0037 21.6979 18.1241 21.6817 18.2426C21.6655 18.361 21.6261 18.475 21.5656 18.5781C20.8499 19.8185 19.8201 20.8485 18.5798 21.5644C17.3395 22.2803 15.9326 22.6569 14.5005 22.6562C13.0684 22.6569 11.6615 22.2803 10.4212 21.5644C9.18091 20.8485 8.15109 19.8185 7.43538 18.5781C7.31521 18.37 7.28264 18.1226 7.34484 17.8905C7.40705 17.6583 7.55892 17.4604 7.76706 17.3402ZM12.688 11.7812C12.688 13.282 11.876 14.5 10.8755 14.5C9.875 14.5 9.063 13.282 9.063 11.7812C9.063 10.2805 9.875 9.0625 10.8755 9.0625C11.876 9.0625 12.688 10.2805 12.688 11.7812ZM19.938 11.7812C19.938 13.282 19.126 14.5 18.1255 14.5C17.125 14.5 16.313 13.282 16.313 11.7812C16.313 10.2805 17.125 9.0625 18.1255 9.0625C19.126 9.0625 19.938 10.2805 19.938 11.7812Z" fill="#FC6E8E"/>
</svg>

<svg width="29" height="29" fill="none" xmlns="http://www.w3.org/2000/svg"><path d="M14.5 27.188a12.687 12.687 0 110-25.375 12.687 12.687 0 010 25.375zm0 1.812a14.5 14.5 0 100-29 14.5 14.5 0 000 29z" fill="#828282"/><path d="M7.767 17.34a.906.906 0 011.238.332 6.34 6.34 0 005.495 3.172 6.34 6.34 0 005.496-3.172.906.906 0 111.57.906 8.152 8.152 0 01-7.065 4.078 8.152 8.152 0 01-7.066-4.078.906.906 0 01.332-1.238zm4.921-5.559c0 1.501-.812 2.719-1.813 2.719-1 0-1.812-1.218-1.812-2.719 0-1.5.812-2.719 1.813-2.719 1 0 1.812 1.219 1.812 2.72zm7.25 0c0 1.501-.812 2.719-1.813 2.719-1 0-1.812-1.218-1.812-2.719 0-1.5.812-2.719 1.813-2.719 1 0 1.812 1.219 1.812 2.72z" fill="#FC6E8E"/></svg>
